X: 14
T: Piano Sonata no. 4 in E\b major, Allegro
C: Ludwig van Beethoven
%%abc-version 2.0
%%abcx-abcm2ps-target-version 5.9.1 (29 Sep 2008)
%%abc-creator hum2abc beta
%%abcx-conversion-date 2021/01/11 11:42:15
%%abc-edited-by Craig Stuart Sapp
%%abcx-initial-encoding-date 2008/02/10/
%%gracespace 0 6 6
%%notespacingfactor 2
%%humdrum-veritas 2346715412
%%humdrum-veritas-data 3947432828
%%scale 0.7
%%linebreak <none>
%%barnumbers 0
L: 1/8
M: 3/4
Q: "Allegro" 1/4=132
%%staves {1 2}
V: 1 clef=treble
V: 2 clef=bass
K: Eb
[V:1] [B,4E4G4B4]G2 | 
[V:2] z2E,2G,2 | 
[V:1] E2G2B2 & z2G4- | 
[V:2] B,6- & B,2G,2E,2 | 
[V:1] e2g2fd & G4F2 | 
[V:2] B,4A,2 & B,,6 | 
[V:1] egB2z2 & G2z2z2 | 
[V:2] G,2z2z2 & E,2z2z2 | 
[V:1] ceB2z2 | 
[V:2] E6 & A,2G,2z2 | 
[V:1] ABG2z2 & F2E2z2 | 
[V:2] B,4z2 & D,2E,2z2 | 
[V:1] [D2F2][F2A2].[E2G2] | 
[V:2] [B,,2B,2][D,2B,2].[E,2B,2] | 
[V:1] .[D2F2]z2z2 | 
[V:2] .[B,,2B,2]z2z2 | 
[V:1] [B,4E4G4B4]G2 | 
[V:2] z2E,2G,2 | 
[V:1] E2G2B2- & z2G4 | 
[V:2] B,6- & B,2G,2E,2 | 
[V:1] e2g2fd & [G4B4][F2A2] | 
[V:2] [B,,4B,4][=B,,2=B,2] | 
[V:1] e2z2z2 & [E2G2]z2z2 | 
[V:2] [C,2C2]z2z2 | 
[V:1] z2f2ec & z2z2F2 | 
[V:2] z2z2[=A,,2F,2=A,2] | 
[V:1] .d2z2z2 & F2z2z2 | 
[V:2] .[B,,2F,2B,2]z2z2 | 
[V:1] z2z2e'c' | 
[V:2] z2z2[=A,2C2F2-] | 
[V:1] d'f'.f2e'c' | 
[V:2] z2F4- & [B,2D2F2][C2E2][=A,2C2] | 
[V:1] d'f'.f2e'c' | 
[V:2] z2F4- & [B,2D2F2][C2E2][=A,2C2] | 
[V:1] d'f'.f2e'c' | 
[V:2] z2F4- & [B,2D2F2][C2E2][=A,2C2] | 
[V:1] d'f'e'd'c'b | 
[V:2] [B,2D2F2]z2=E,2 | 
[V:1] =abd'fc'e | 
[V:2] F,2z2.F,,2 | 
[V:1] [db]fedcB | 
[V:2] .B,,2z2=E,,2 | 
[V:1] =ABdFcE | 
[V:2] F,,2z2.[F,,,2F,,2] | 
[V:1] [DB]FDB,F,D, | 
[V:2] .[B,,,2B,,2]z2z2 | 
[V:1] z6 :|]|:  
[V:2] .[B,,,2B,,2]z2z2 :|]|:  
[V:1] z6 | 
[V:2] B,4G,2 | 
[V:1] B4G2 | 
[V:2] =E,2G,2B,2 | 
[V:1] =E2G2B2 | 
[V:2] _D4B,2 | 
[V:1] _d4B2 | 
[V:2] G,2B,2_D2 | 
[V:1] G2B2_d2 | 
[V:2] =E4_D2 | 
[V:1] =e4_d2 | 
[V:2] B,2_D2=E2[K:clef=treble] | 
[V:1] B2_d2=e2 | 
[V:2] [G6B6]- | 
[V:1] g2f2=e2 | 
[V:2] [G6B6] | 
[V:1] =e2f2f2 | 
[V:2] [A6c6]- | 
[V:1] a2g2f2 | 
[V:2] [A6c6] | 
[V:1] z2=e2e2 | 
[V:2] [G6B6_d6]- | 
[V:1] !accent!g2f2=e2 | 
[V:2] [G6B6d6] | 
[V:1] z2f2f2 | 
[V:2] [A6c6]- | 
[V:1] !accent!a2g2f2 | 
[V:2] [A6c6] | 
[V:1] e2d2.d2 | 
[V:2] [F6A6]- | 
[V:1] f2e2d2 | 
[V:2] [F6A6] | 
[V:1] c2B2=A2 | 
[V:2] [D6F6]- | 
[V:1] B2c2A2 | 
[V:2] [D6F6][K:clef=bass] | 
[V:1] [B,4E4G4B4]G2 | 
[V:2] z2E,2G,2 | 
[V:1] E2G2B2- & z2G4- | 
[V:2] B,6- & B,2G,2E,2 | 
[V:1] e2g2fd & B6- | 
[V:2] B,6- & B,,4A,,2 | 
[V:1] egB2z2 & [G2B2]z2z2 | 
[V:2] B,2z2z2 & G,,2z2z2 | 
[V:1] ceB2z2 | 
[V:2] E4z2 & A,2G,2z2 | 
[V:1] ABG2z2 & F2E2z2 | 
[V:2] B,4z2 & D,2E,2z2 | 
[V:1] [D2F2][F2A2].[E2G2] | 
[V:2] [B,,2B,2][D,2B,2].[E,2B,2] | 
[V:1] .[D2F2]z2z2 | 
[V:2] .[B,,2B,2]z2z2 | 
[V:1] [B,4E4_G4B4]G2 | 
[V:2] z2E,2_G,2 | 
[V:1] E2_G2B2- & z2_G4 | 
[V:2] B,6- & B,2_G,2E,2 | 
[V:1] e2_g2fd & [_G4B4][F2A2] | 
[V:2] B,6 & B,,6 | 
[V:1] e2z2z2 & [E2_G2]z2z2 | 
[V:2] [_C,2_C2]z2z2 | 
[V:1] z2z2_f_d & z2z2_G2- | 
[V:2] z2z2[B,,2_G,2-B,2] | 
[V:1] e2z2_f_d & G2z2_G2- | 
[V:2] [_C,2G,2_C2]z2[B,,2_G,2B,2] | 
[V:1] e2z2_f_d & G2z2_G2- | 
[V:2] [_C,2_G,2_C2]z2[B,,2G,2B,2] | 
[V:1] e2_g4- & G2_G4 | 
[V:2] _C6- & _C,4E,2 | 
[V:1] g2_f4- & A6 | 
[V:2] C4_D2- & _F,6 | 
[V:1] f2e4 & B2_c4- | 
[V:2] D4E2 & _G,6- | 
[V:1] _d6 & c2B4 | 
[V:2] _F2_G2F2 & G,6 | 
[V:1] e2_g4- & _c2_G4 | 
[V:2] E2z2E,2 & _C6- | 
[V:1] g2_f4- & A6 | 
[V:2] C4_D2- & _F,6 | 
[V:1] f2e4- & B2_c4 | 
[V:2] D4E2- & _G,6 | 
[V:1] e2_d4- & B6 | 
[V:2] E4E2- & =G,6 | 
[V:1] d2_c4- | 
[V:2] E4E2- & A,6 | 
[V:1] c2B4- | 
[V:2] E4E2- & B,6 | 
[V:1] B2=A2z2 | 
[V:2] E4E2 & _C6 | 
[V:1] z6 | 
[V:2] z6 | 
[V:1] z2B2B2 | 
[V:2] B,2z2z2 | 
[V:1] z2z2af & B2B2B2 | 
[V:2] z2z2[K:clef=treble]FD | 
[V:1] g2B2fd & B2B2B2 | 
[V:2] .E2B,2AF | 
[V:1] e2B2af & B2B2B2 | 
[V:2] .G2B,2FD | 
[V:1] .g2B2fd & B2B2B2 | 
[V:2] .E2B,2AF | 
[V:1] e2e2c'a & e2e2e2 | 
[V:2] .G2E2AF | 
[V:1] b2e2a^f & e2e2e2 | 
[V:2] .G2E2c=A | 
[V:1] g2e2c'a & e2e2e2 | 
[V:2] .B2E2A=F | 
[V:1] b2e2a^f & e2e2e2 | 
[V:2] .G2E2c=A | 
[V:1] g2e2_d'b & e2e2e2 | 
[V:2] .B2E2[K:clef=bass][G,2E2-G2] | 
[V:1] c'e'=d'c'ba | 
[V:2] [A,2E2A2]z2A,2 | 
[V:1] gbe'gd'f | 
[V:2] B,2z2[=B,2F2A2] | 
[V:1] e'edcBA | 
[V:2] [C2E2G2]z2A,,2 | 
[V:1] GBeGdF | 
[V:2] B,,2z2[=B,,2F,2A,2] | 
[V:1] eEDCB,A, | 
[V:2] [C,2E,2G,2]z2A,,,2 | 
[V:1] G,B,EG,DF, | 
[V:2] B,,,2B,,2B,,2 | 
[V:1] [G,2E2]z2z2 | 
[V:2] z2E,2E,2 & E,,6- | 
[V:1] [G,6B,6E6G6] | 
[V:2] _D,2E,2B,,2 & E,,6- | 
[V:1] [A,6C6E6A6] | 
[V:2] C,2E,2A,,2 & E,,6- | 
[V:1] [A,6D6B6] | 
[V:2] =D,2F,2B,,2 & E,,6 | 
[V:1] [G,2E2]e2e2 | 
[V:2] E,6- | 
[V:1] _d2e2B2 | 
[V:2] [E,6-G,6B,6] | 
[V:1] c2e2A2 | 
[V:2] [E,6A,6C6] | 
[V:1] =d2f2B2 & [F6A6] | 
[V:2] [E,6F,6A,6B,6D6] | 
[V:1] [Ge]BGEB,G, | 
[V:2] .[E,2G,2B,2E2]z2z2 | 
[V:1] z6 :|]  
[V:2] [E,,2E,2]z2z2 :|]  
[V:1]  [K:Gb] 
[V:2]  [K:Gb] 
[V:1] B,2 [I:setbarnb 97]| 
[V:2] z2 | 
[V:1] (3G,B,G (3G,B,G (3G,B,G | 
[V:2] (3E,,B,,E, (3E,,B,,E, (3E,,B,,E, | 
[V:1] (3G,B,G (3F,B,F (3G,B,G | 
[V:2] (3E,,B,,E, (3=D,,B,,=D, (3E,,B,,E, | 
[V:1] (3A,B,A (3A,B,A (3A,B,A | 
[V:2] (3F,,B,,F, (3F,,B,,F, (3F,,B,,F, | 
[V:1] (3A,B,A (3A,B,A (3A,B,A | 
[V:2] (3F,,B,,F, (3F,,B,,F, (3F,,B,,F, | 
[V:1] (3G,B,G (3G,B,G (3G,B,G | 
[V:2] (3E,,B,,E, (3E,,B,,E, (3E,,B,,E, | 
[V:1] (3G,B,G (3F,B,F (3G,B,G | 
[V:2] (3E,,B,,E, (3=D,,B,,=D, (3E,,B,,E, | 
[V:1] (3A,DA (3A,DA (3A,DA | 
[V:2] (3F,,D,F, (3F,,D,F, (3F,,D,F, | 
[V:1] (3A,DA (3A,DA (3A,DA | 
[V:2] (3F,,D,F, (3F,,D,F, (3F,,D,F, | 
[V:1] (3B,DB (3B,DB (3B,DB | 
[V:2] (3G,,D,G, (3G,,D,G, (3G,,D,G, | 
[V:1] (3B,DB (3B,DB (3B,DB | 
[V:2] (3G,,,D,,G,, (3G,,,D,,G,, (3G,,,D,,G,, | 
[V:1] (3B,EB (3A,EA (3A,EA | 
[V:2] (3C,,E,,C, (3C,,E,,C, (3C,,E,,C, | 
[V:1] (3A,EA (3G,A,G (3G,A,G | 
[V:2] (3C,,E,,C, (3C,,E,,C, (3C,,E,,C, | 
[V:1] (3G,A,G (3F,A,F (3F,A,F | 
[V:2] (3C,,E,,C, (3C,,E,,C, (3C,,E,,C, | 
[V:1] (3F,A,F (3G,=A,G (3E,A,E | 
[V:2] (3C,,E,,C, (3C,,E,,C, (3C,,E,,C, | 
[V:1] [=D,2B,2=D2][B,2D2F2][B,2D2F2] | 
[V:2] [B,,,2B,,2][B,,2F,2][B,,2F,2] | 
[V:1] [B,2=D2F2]z2 :|]  
[V:2] [B,,2F,2]z2 :|]  
[V:1] F2 [I:setbarnb 113]| 
[V:2] z2 | 
[V:1] (3DFd (3DFd (3DFd | 
[V:2] (3B,,F,B, (3B,,F,B, (3B,,F,B, | 
[V:1] (3DFd (3=CF=c (3DFd | 
[V:2] (3B,,F,B, (3=A,,F,=A, (3B,,F,B, | 
[V:1] (3EFe (3EFe (3EFe | 
[V:2] (3=C,F,=C (3C,F,C (3C,F,C | 
[V:1] (3EFe (3EFe (3EFe | 
[V:2] (3=C,F,=C (3C,F,C (3C,F,C | 
[V:1] (3DFd (3DFd (3DFd | 
[V:2] (3B,,F,B, (3B,,F,B, (3B,,F,B, | 
[V:1] (3DFd (3=CF=c (3DFd | 
[V:2] (3B,,F,B, (3=A,,F,=A, (3B,,F,B, | 
[V:1] (3=DB=d (3DBd (3DBd | 
[V:2] (3A,,B,,A, (3A,,B,,A, (3A,,B,,A, | 
[V:1] (3=DB=d (3DBd (3DBd | 
[V:2] (3A,,B,,A, (3A,,B,,A, (3A,,B,,A, | 
[V:1] (3EBe (3EBe (3FBf | 
[V:2] (3G,,B,,G, (3G,,B,,G, (3=D,,B,,=D, | 
[V:1] (3GBg (3GBg (3=Ae=a | 
[V:2] (3E,,B,,E, (3E,,B,,E, (3C,,E,,C, | 
[V:1] (3B=db (3Aca (3GBg | 
[V:2] [B,,,2B,,2]z2z2 | 
[V:1] (3FAf (3EGe (3=DF=d | 
[V:2] z6 | 
[V:1] (3EGe (3G,B,G (3G,B,G | 
[V:2] (3E,,B,,E, (3E,,B,,E, (3E,,B,,E, | 
[V:1] (3G,B,G (3F,B,F (3G,B,G | 
[V:2] (3E,,B,,E, (3=D,,B,,=D, (3E,,B,,E, | 
[V:1] (3A,B,A (3A,B,A (3A,B,A | 
[V:2] (3F,,B,,F, (3F,,B,,F, (3F,,B,,F, | 
[V:1] (3A,B,A (3A,B,A (3A,B,A | 
[V:2] (3F,,B,,F, (3F,,B,,F, (3F,,B,,F, | 
[V:1] (3G,B,G (3G,B,G (3G,B,G | 
[V:2] (3E,,B,,E, (3E,,B,,E, (3E,,B,,E, | 
[V:1] (3G,B,G (3F,B,F (3G,B,G | 
[V:2] (3E,,B,,E, (3=D,,B,,=D, (3E,,B,,E, | 
[V:1] (3A,EA (3A,EA (3A,EA | 
[V:2] (3C,,E,,C, (3C,,E,,C, (3C,,E,,C, | 
[V:1] (3A,EA (3A,EA (3B,EB | 
[V:2] (3C,,E,,C, (3C,,E,,C, (3B,,,E,,B,, | 
[V:1] (3CEc Cc (3CEc | 
[V:2] (3A,,,E,,A,, (3A,,,E,,A,, (3A,,,E,,A,, | 
[V:1] (3=DA=d (3DAd (3DAd | 
[V:2] (3B,,,F,,B,, (3B,,,F,,B,, (3B,,,F,,B,, | 
[V:1] (3EGe (3EGe (3FBf | 
[V:2] (3E,,B,,E, (3E,,B,,E, (3=D,,B,,=D, | 
[V:1] (3GBg (3GBg (3=Ag=a | 
[V:2] (3E,,B,,E, (3E,,B,,E, (3C,,E,,C, | 
[V:1] (3Bgb (3Bgb (3Bgb | 
[V:2] (3B,,,E,,B,, (3B,,,E,,B,, (3B,,,E,,B,, | 
[V:1] (3=da=d' (3dad' (3dad' | 
[V:2] (3B,,,F,,B,, (3B,,,F,,B,, (3B,,,F,,B,, | 
[V:1] [e2g2e'2]z2z2 | 
[V:2] (3E,,B,,E, (3E,,B,,E, (3E,,B,,E, | 
[V:1] z2G2F2 | 
[V:2] (3E,,B,,E, (3E,,B,,E, (3E,,B,,E, | 
[V:1] E4=D2 & A,6- | 
[V:2] (3E,,C,=D, (3E,,C,D, (3E,,C,D, | 
[V:1] E4F2 & [F,6A,6] | 
[V:2] (3E,,C,=D, (3E,,C,D, (3E,,C,D, | 
[V:1] B,6- & G,6- | 
[V:2] (3E,,B,,E, (3E,,B,,E, (3E,,B,,E, | 
[V:1] B,2G2F2 & G,6 | 
[V:2] (3E,,B,,E, (3E,,B,,E, (3E,,B,,E, | 
[V:1] E4=D2 & A,6- | 
[V:2] (3E,,C,=D, (3E,,C,D, (3E,,C,D, | 
[V:1] E4F2 & [F,6A,6] | 
[V:2] (3E,,C,=D, (3E,,C,D, (3E,,C,D, | 
[V:1] B,6- | 
[V:2] [E,,6B,,6]- | 
[V:1] B,6 | 
[V:2] [E,,6B,,6] | 
[V:1] E6 | 
[V:2] z6 | 
[V:1] =G6 | 
[V:2] z6 | 


